Simply-Purple-Circles/scalable/places/folder-script.svg

<svg xmlns="http://www.w3.org/2000/svg" width="48" height="48" viewBox="0 0 12.7 12.7"><path d="M6.34.07a6.29 6.29 0 0 0-6.29 6.3 6.29 6.29 0 0 0 6.3 6.28 6.29 6.29 0 0 0 6.28-6.29A6.29 6.29 0 0 0 6.34.07zM6.32 1l.01.01a5.4 5.4 0 0 1 5.4 5.4 5.4 5.4 0 0 1-5.4 5.41 5.4 5.4 0 0 1-5.41-5.4A5.4 5.4 0 0 1 6.32 1zM3.5 3.73a.34.53 45 0 0-.57.81l1.79 1.8-1.8 1.78a.53.34 45 0 0 .75.75l2.21-2.21a.53.34 45 0 0 .05-.09.18.33 0 0 0 .07-.24.18.33 0 0 0-.08-.27.34.53 45 0 0-.04-.06l-2.2-2.2a.34.53 45 0 0-.18-.07zm2.93 3.95a.34.53 0 1 0 .03 1.05h3.12a.34.53 0 0 0 0-1.05H6.46a.34.53 0 0 0-.03 0z" fill="#963996"/></svg>

<?xml version="1.0" encoding="UTF-8" standalone="no"?>
<svg
   xmlns:dc="http://purl.org/dc/elements/1.1/"
   xmlns:cc="http://creativecommons.org/ns#"
   xmlns:rdf="http://www.w3.org/1999/02/22-rdf-syntax-ns#"
   xmlns:svg="http://www.w3.org/2000/svg"
   xmlns="http://www.w3.org/2000/svg"
   xmlns:sodipodi="http://sodipodi.sourceforge.net/DTD/sodipodi-0.dtd"
   xmlns:inkscape="http://www.inkscape.org/namespaces/inkscape"
   width="48"
   height="48"
   viewBox="0 0 12.7 12.7"
   version="1.1"
   id="svg4"
   sodipodi:docname="folder-script.svg"
   inkscape:version="0.92.4 (5da689c313, 2019-01-14)">
  <metadata
     id="metadata10">
    <rdf:RDF>
      <cc:Work
         rdf:about="">
        <dc:format>image/svg+xml</dc:format>
        <dc:type
           rdf:resource="http://purl.org/dc/dcmitype/StillImage" />
        <dc:title></dc:title>
      </cc:Work>
    </rdf:RDF>
  </metadata>
  <defs
     id="defs8" />
  <sodipodi:namedview
     pagecolor="#ffffff"
     bordercolor="#666666"
     borderopacity="1"
     objecttolerance="10"
     gridtolerance="10"
     guidetolerance="10"
     inkscape:pageopacity="0"
     inkscape:pageshadow="2"
     inkscape:window-width="1085"
     inkscape:window-height="480"
     id="namedview6"
     showgrid="false"
     inkscape:zoom="4.9166667"
     inkscape:cx="2.1355932"
     inkscape:cy="24"
     inkscape:window-x="0"
     inkscape:window-y="25"
     inkscape:window-maximized="0"
     inkscape:current-layer="svg4" />
  <path
     d="M 6.34,0.07 A 6.29,6.29 0 0 0 0.05,6.37 6.29,6.29 0 0 0 6.35,12.65 6.29,6.29 0 0 0 12.63,6.36 6.29,6.29 0 0 0 6.34,0.07 Z M 6.32,1 6.33,1.01 a 5.4,5.4 0 0 1 5.4,5.4 5.4,5.4 0 0 1 -5.4,5.41 A 5.4,5.4 0 0 1 0.92000003,6.42 5.4,5.4 0 0 1 6.32,1 Z M 3.5,3.73 A 0.34,0.53 45 0 0 2.93,4.54 l 1.79,1.8 -1.8,1.78 A 0.53033009,0.34021175 45 0 0 3.67,8.87 L 5.88,6.66 A 0.53,0.34 45 0 0 5.93,6.57 0.18,0.33 0 0 0 6,6.33 0.18,0.33 0 0 0 5.92,6.06 0.34,0.53 45 0 0 5.88,6 L 3.68,3.8 A 0.34,0.53 45 0 0 3.5,3.73 Z m 2.93,3.95 a 0.34,0.53 0 1 0 0.03,1.05 h 3.1200003 a 0.34,0.53 0 0 0 0,-1.05 H 6.46 a 0.34,0.53 0 0 0 -0.03,0 z"
     id="path2"
     inkscape:connector-curvature="0"
     style="fill:#963996" />
</svg>
